X: 55
T: RUBY'S SUCCESS
C: Steven Spence
R: march, reel
B: Haand me doon da fiddle, 1979
Z: 2012 John Chambers <jc:trillian.mit.edu>
M: none
L: 1/8
K: D
AG |:\
.F2.D2 .G2.E2 | A2d2 d2cd | e2A2 fedc | d2A2 ABAG |
F2D2 G2E2 | A2d2 d2cd | e2A2 fedc |1 d4- d2AG :|2 d4-.d2cd |:
ve2A2 cAce | e2[e2B2] [e2B2]cd | e2A2 aece | d2[e2B2] [e2B2]cd |
e2A2 cAce | d2[e2B2] [e2B2]cB | vA4 fe dc |1 d4- d2cd :|2 d4-d4 |]
%%begintext align
Dis is a t\"un composed be Steven Spence, wan o' da young fiddlers
fae Uyeasoond in Unst.  His midder Ruby wan a competition run
be Radio Aberdeen whaur shu had te say whit band was playing.
Whin shu wan it he made up dis t\"un fir her.
%%endtext

%%sep 2 1 500
%%sep 1 1 500

